source/img/logotype.svg

<svg width="102" height="84" fill="none" xmlns="http://www.w3.org/2000/svg"><path d="M0 0l50.6 59.1L101.7 0H0z" fill="#23A9E1"/><path d="M50.9 0H0v22.5L50.6 84l.3-.4 50.7-60.4V0H50.9zm0 57.1l-.3.4L3.7 1.8h94.4L50.9 57.1z" fill="#491213"/><path d="M50.6 57.5l.3-.4 27.6-32.3c-6.9.9-11.9 6.1-18.6 5-3.4-.6-3.5-2.5-4.5-4.5-.7-1.5-1.9-1.3-3.5-1.9-1.4-.6-2.3-1.7-5.2-1.1-2.5.6-2.8 4.5-6 4.3-1.7-.1-1.8-2.5-4.2-5.5-6.3-7.6-12.2-6.5-16.2.5l30.3 35.9z" fill="#491213"/><path d="M23.3 32.2c.5.6.9 1.3.8 2.1-.1.6-.9 1.5-.3 1.8.7-.9 1.5-1.9 2.2-2.8-.6-.2-5.4-5.8-5.4-6.5-1.1.6-2.1 1.2-3.2 1.7.2.7 1.3 0 1.9 0 .8.1 1.4.6 2 1.2-1.7 1.4-5.9 5-6.4 5.1-.2 0-1.1-.6-1.1-.1 0 .3.9 1 1 1.2.7.9 1.5 1.8 2.2 2.7.6-.3-.1-.7.2-1.2.3-.3 4.9-4.2 6.1-5.2zM18 25.3c.4-.1.6.4 1-.1-.8-1-1.6-1.9-2.4-2.9-.4-.4-.8-.9-.7 0 .1.6-6.1 5.7-6.5 5.8-.5.2-.8-.4-1.1.1.7.9 1.5 1.7 2.2 2.6.2.3.5.6.7.9.3.3.2-.7.2-.6-.1-.5.5-.9.9-1.2 1.5-1.4 5.3-4.6 5.7-4.6zM9.2 24.4c-1.8.5-3.6-.2-4.2-2-.5-1.8.6-3.8 2.1-4.8 1.4-1 3.6-1 4.4.8.3.8.2 1.7-.1 2.5-.2.5-.6 1 .1 1.3.9-1.1 1.7-2.2 2.6-3.3-1.1-.6-1.5-1.7-2.3-2.6-.9-1.1-2.1-2.1-3.5-2.3-2.9-.4-5.6 2.6-5.8 5.2-.1 1.5.4 2.8 1.2 4 .8 1 1.9 1.6 2.4 2.8.3.1 2.7-1 3.3-1.3-.1-.1-.1-.3-.2-.3-.7.2 0 0 0 0zM48.5 60.8c-1.2-.8-4-4.7-4.6-5.3-.1-.1-.2-.3-.3-.4 0 0-.3.2-.2.2-.2.1.1.6-.1.9-.8 1.2-5.8 5-6 5.2-.6.4-1.2-.2-1.5.3.7.9 2.8 3.5 3 3.6.5.1.1-.8.2-1 .1-.4 2.6-2.4 3.5-3.2.3-.3.7.4.9.7.3.5.5 1 .3 1.6-.1.4-.7.9-.3 1.2.6-.7 2.4-2.8 2.6-3 .3-.3-.6 0-.5-.1-.4.2-.7.2-1.1 0-.1-.1-1.1-1.1-1-1.2.4-.4 1-1 1.5-1.1.9-.2 1.6 1.5 1.7 2.1.1.6.1 1.2-.1 1.8-.1.4-.5.7 0 .9.7-1 1.4-1.9 2.1-2.9.2-.2 0-.3-.1-.3-.1-.1.2 0 0 0zM38.3 56.6c2.2-1.9 2.5-5.1.8-7.3-1.9-2.5-5.4-3.1-7.8-1.1-2.2 1.9-2.5 5-.8 7.3 2 2.7 5.2 3 7.8 1.1 1.2-.9-.1.1 0 0zm-.5-4.7c-.6 1.5-2.2 3.1-3.7 3.7-1.8.7-3.1-.8-2.4-2.6.6-1.5 2.2-3.1 3.7-3.7 1.9-.7 3.1.9 2.4 2.6-.3.9.1-.2 0 0zM31.9 42c.5.1.9.6 1.3 0-.7-.9-1.5-1.8-2.2-2.6-.6.3 0 .5-.2 1-.2.4-2.6.8-3.2.9.2-.6.9-2.6 1.2-2.8.5-.4.9.4 1.3-.1l-2.7-3.3c-.3-.4-.6-1-1-.7 0 0 0 1.5-.1 1.7-.1.2-.9 3.6-1.9 4.5-.5.4-2.2 1.9-2.7 2.1-.5.2-.8-.6-1.2 0 .8 1 1.7 2 2.5 3 .1.1.6.9.8.9.5.1.1-.9.1-1.1.2-.4 2.5-2.7 3.5-2.9 1.2-.3 3-.8 4.5-.6.3.1-.4 0 0 0zM69.2 52.4c.2.6.3 1.3.2 2-.1.9-1 2.9-2.2 2.3C66 56.1 65 55 64 54.1c.8-.9 1.5-1.7 2.9-1.3.4.1.7 0 .3-.3-.4-.2-3.1-2-3.3-1.8-.3.3.5.9.2 1.5-.2.4-.6.8-.9 1.2-.7-.6-1.9-1.3-1.1-2.3.5-.7 1.3-1.2 2.1-1.3.6-.1 1.8.4 2-.2-1.1-.5-2.2-1-3.3-1.6.2.8-3.3 4.5-4.1 5.5-.1.1-.7.6-.7.8 0 .4.6.1.7.1.5-.2 6.8 5.1 7 5.5.1.3-.2.6 0 .7 0 0 .2.2.3.2.4-.5 4.5-6 5.4-6.2-.8-1.2-1.6-2.4-2.4-3.7-.6.4 0 1.1.1 1.5zM63 59.2c-2.1-1.3-5.6 1.3-6.1 1.5-1 .5-1.8-.5-1.3-1.5.5-.8 1.4-1.2 2.3-1.3.3 0 1.4.2 1.5 0 .1-.2.2-.2 0-.3-.9-.6-1.7-1.2-2.6-1.7-.2 1.1-1.4 1.7-2.1 2.4-.8.9-1.5 1.9-1.5 3.2 0 1.1.7 2.1 1.7 2.7 1.1.6 2.3.1 3.3-.5.6-.4 1.3-.9 1.9-1.2 1-.5 2.3-.1 2 1.3-.3 1.1-1.4 2.1-2.4 2.3-.6.2-1.3.1-1.9-.1-.4-.1-1-.7-1.2-.1 1.2.8 2.3 1.7 3.5 2.5.1-.8.5-1.1 1.1-1.6.7-.6 1.4-1.3 2-2.1 1.2-1.7 1.6-4.1-.2-5.5zM63 59.2c1 .5-.6-.5 0 0zM99.7 19.6c-.7.7-8.4-2.3-9-2.8-.3-.1-.3-1.3-.7-.8l-1.2 1.5c-.4.5-.8 1-1.3 1.5-.3.3-.5.5 0 .7.8-.4 5.4 7.3 5 8.5-.7.4-6.9-5.1-7.1-5.4-.1-.1.3-1-.2-.9-.2 0-.7.9-.9 1.1-.3.4-.6.7-.9 1.1.3.5.5 0 1 0 .4.1 1.8 1.3 2.2 1.7-.7 0-2.7.1-2.9.1-.9.1-.4-.7-1-.9-.8.9-1.5 1.8-2.3 2.8-.4.5-.9 1.1-1.3 1.6-.1.1 0 0 .1.1.3.3.1.2.6 0s6.6 4.9 6.8 5.2c.4.5-.2 1 .4 1.2.6-.7 1.2-1.5 1.8-2.2.1-.1.1-.1 0-.2-.4-.4-.5.2-1 .2-.5-.1-4.4-3.4-5.9-4.6 1.8-.1 7.3-.3 8.2-.3.3 0 1.1.9 1.1 1.2-.1.4-.5.6.1.8.5-.6 1-1.1 1.5-1.7l.2-.3c.1-.1.1-.1.2-.3l.2-.2c.4-.5 1.8-2 1.6-2.2-.5-.4-.7.5-1.3-.1-.3-.2-1.2-1.8-1.4-2.2-.3-.4.6-.9 1-1.1.8-.5 3.2-1.2 3.5.3 0 .3-.3.5-.1.7 0 0 .2.2.3.2.2-.2 2.4-2.8 3.3-4-.4-.1-.5-.2-.6-.3zm-7.4 2.2c.1-.1.2-.1 0 0-.3.2-.7.5-1 .8-.5-.9-1-1.8-1.6-2.7 1.2.5 2.4 1 3.5 1.5-.2 0-.5.2-.9.4zM82.6 33c-2.4-2-5.6-1.4-7.6.8-1.9 2.3-1.7 5.7.6 7.6 2.3 1.9 5.7 1.4 7.6-.8 1.9-2.3 1.8-5.7-.6-7.6zm-.3 6.6c-1.3 1.3-3.4.1-4.5-.7-1.1-.8-3.1-2.6-1.9-4.1 1.1-1.3 3.1-.2 4.2.5 1.2.8 3.4 2.6 2.3 4.2l-.1.1z" fill="#fff"/><path d="M82.6 33c1.2 1-.3-.2 0 0zM82.3 39.6l.1-.1-.1.1zM76 42.1c.1.1.3.2 0 0-2.9-2.2-6.3-1.6-8.5 1.1l-3 3.6c.4.5.8-.1 1.3.2.4.3 6.2 5.1 6.3 5.4.2.5-.3.5.1.9.2.1 4.5-5.2 4.9-6.2.9-1.8.3-3.8-1.1-5zm-1.3 6.8c-.2.3 0 .1-.7.7-.3.3-6.4-4.7-6.2-4.9.8-.9 2.6-1.6 3.6-1.3 2.2.4 5.2 3.1 3.3 5.5z" fill="#fff"/><path d="M50.6 57.5l.3-.4 27.6-32.3c-6.9.9-11.9 6.1-18.6 5-3.4-.6-3.5-2.5-4.5-4.5-.7-1.5-1.9-1.3-3.5-1.9-1.4-.6-2.3-1.7-5.2-1.1-2.5.6-2.8 4.5-6 4.3-1.7-.1-1.8-2.5-4.2-5.5-6.3-7.6-12.2-6.5-16.2.5l30.3 35.9z" fill="#491213"/><path d="M46.5 70.9l4.1-6.5 4 6.5-4 6.5-4.1-6.5z" fill="#23A9E1"/><path d="M23.3 32.3c.5.6.9 1.3.8 2.1-.1.6-.9 1.6-.3 1.8.7-.9 1.5-1.9 2.2-2.8-.6-.2-5.4-5.8-5.4-6.5-1.1.6-2.1 1.2-3.2 1.7.2.7 1.3 0 1.9 0 .8.1 1.4.6 2 1.2-1.7 1.4-5.9 5-6.4 5.1-.2 0-1.1-.6-1.1-.1 0 .3.9 1 1 1.2.7.9 1.5 1.8 2.2 2.7.6-.3-.1-.7.2-1.2.3-.4 4.9-4.3 6.1-5.2zM18 25.3c.4-.1.6.4 1-.1-.8-1-1.6-1.9-2.4-2.9-.4-.4-.8-.9-.7 0 .1.6-6.1 5.7-6.5 5.8-.5.2-.8-.4-1.1.1.7.9 1.5 1.7 2.2 2.6.2.3.5.6.7.9.3.3.2-.7.2-.6-.1-.5.5-.9.9-1.2 1.5-1.3 5.3-4.6 5.7-4.6zM9.2 24.4c-1.8.5-3.7-.2-4.2-2s.6-3.8 2.1-4.8c1.4-1 3.6-1 4.4.8.3.8.2 1.7-.1 2.5-.2.5-.6 1 .1 1.3.9-1.1 1.7-2.2 2.6-3.3-1.1-.6-1.5-1.7-2.3-2.6-.9-1.1-2.1-2.1-3.5-2.3-2.9-.4-5.6 2.6-5.8 5.2-.1 1.5.4 2.8 1.2 4 .8 1 1.9 1.6 2.4 2.8.3.1 2.7-1 3.3-1.3-.1-.1-.1-.2-.2-.3-.7.2 0 0 0 0zM48.5 60.8c-1.2-.8-4-4.7-4.6-5.3-.1-.1-.2-.3-.3-.4 0 0-.3.2-.2.2-.2.1.1.6-.1.9-.8 1.2-5.8 5-6 5.2-.6.4-1.2-.2-1.5.3.7.9 2.8 3.5 3 3.6.5.1.1-.8.2-1 .1-.4 2.6-2.4 3.5-3.2.3-.3.7.4.9.7.3.5.5 1 .3 1.6-.1.4-.7.9-.3 1.2.6-.7 2.4-2.8 2.6-3 .3-.3-.6 0-.5-.1-.4.2-.7.2-1.1 0-.1-.1-1.1-1.1-1-1.2.4-.4 1-1 1.5-1.1.9-.2 1.6 1.5 1.7 2.1.1.6.1 1.2-.1 1.8-.1.4-.5.7 0 .9.7-1 1.4-1.9 2.1-2.9.2-.2 0-.3-.1-.3-.1-.1.2 0 0 0zM38.3 56.6c2.2-1.9 2.5-5.1.8-7.3-1.9-2.5-5.4-3.1-7.8-1.1-2.2 1.9-2.5 5-.8 7.3 2 2.7 5.2 3 7.8 1.1 1.2-.9-.1.1 0 0zm-.5-4.7c-.6 1.5-2.2 3.1-3.7 3.7-1.8.7-3.1-.8-2.4-2.6.7-1.5 2.2-3.1 3.7-3.7 1.9-.7 3.1.9 2.4 2.6-.4.9.1-.2 0 0zM31.9 42c.5.1.9.5 1.3 0-.7-.9-1.5-1.8-2.2-2.6-.6.3 0 .5-.2 1-.2.4-2.6.8-3.2.9.2-.6.9-2.6 1.2-2.8.5-.4.9.4 1.3-.1l-2.7-3.3c-.3-.4-.6-1-1-.7 0 0 0 1.5-.1 1.7-.1.2-.9 3.6-1.9 4.5-.5.4-2.2 1.9-2.7 2.1-.5.2-.8-.6-1.2 0 .8 1 1.7 2 2.5 3 .1.1.6.9.8.9.5.1.1-.9.1-1.1.2-.4 2.5-2.7 3.5-2.9 1.2-.2 3-.7 4.5-.6.3.1-.4 0 0 0z" fill="#fff"/><path d="M25.6 22.9c-4-.2-2.4-4 .4-4.8 2.6-.8 8.1 1.7 9.8 3.4-2.8.9-6.4.7-9.4.9-.2-3.2-1-2.1-.8.5zM26.6 27.7c-2-1.6-1.4-5.3 1.8-4.1 4 2.1-.9 3.2-1.8 4.1zM35.1 35.4c-8.6-.1-2.8-13.3.1-12.5 3.4 1.1 3 12.6-.1 12.5zM41.2 31.1c-.8 2.5-2.4 3-2.2-.1.2-3.5 2.5-2.7 4.9-4 2-1.1 3.1-5.2 6.6-2.8 1.6 1.1 3.4.2 3.9 1.8 0-.1-4.5 10.3-2 10.3-5 0-2.8-5.9-.9-9.9-1.8.9-4.8 6.7-2.4 7.6-1.3 1.7-5.2 3.9-7.2 2.3-1.5-1.1-.7-3.2-.7-5.2zM45.3 40.7c-3.5 1-8.1-1.2-2.5-2.3 3.5-.7 7.2.7 2.5 2.3.1 0-.1 0 0 0zM49.7 40.6c-.7-1.7.6-3.6 2.7-2.2 1.8 1.2-.9 3.1-2.7 2.2zM46.7 45.2c-2.4-.7-10.5-.6-5.2-2.8 1.7-.6 10.2.2 5.2 2.8zM49.9 44.9c0-1-.5-2.7 1.4-1.9 2.2.8-1.4 2.6-1.4 1.9 0 0 0-.2 0 0zM57.2 48.5c-1.4-1.2-2.9-1.3-4.2 0-1.8-3.3-8.3-2.2-11.4-2.7 1.6 4.1 14.8 4.9 15.6 2.7zM55.3 51c-3.2-.1-6.7-.6-9.6.1 1.9.5 6.4 1.8 2.2 2.9 1.5 2.2 4 2 5.6.1-.7-.3-1-.7-1.6-1.1 1.6-.3 3.2-1.2 3.4-2zM58.9 47.1c-5.3-3.1-4-5.4.4-7.6 2.3-1.1 7.3-5.2 9.4-3.9-3.3 3.9-6.6 7.7-9.8 11.5z" fill="#DC6243"/><path d="M55.1 39.8c-4.5-4.6 6.7-4.2 8.5-5.8 1.3.4 10.8-8.3 13.1-7.7-1.7 1.9-5.2 8.1-7.8 8.1-2 0-4-.3-5.5 1.1-2.2 2.1-5.9 3.1-8.3 4.3z" fill="#F49774"/><path d="M56.6 34.2c-2.5 1.3-4.8-3.9-.5-3.4 2.8.3 5.7-.2 8.3.2-2 2.3-4.7 3.6-7.8 3.2z" fill="#F4B1A4"/><path d="M69.2 52.5c.2.6.3 1.3.2 2-.1.9-1 2.9-2.2 2.3-1.2-.6-2.2-1.7-3.2-2.6.8-.9 1.5-1.7 2.9-1.3.4.1.7 0 .3-.3-.4-.2-3.1-2-3.3-1.8-.3.3.5.9.2 1.5-.2.4-.6.8-.9 1.2-.7-.6-1.9-1.3-1.1-2.3.5-.7 1.3-1.2 2.1-1.3.6-.1 1.8.4 2-.2-1.1-.5-2.2-1-3.3-1.6.2.8-3.3 4.5-4.1 5.5-.1.1-.7.6-.7.8 0 .4.6.1.7.1.5-.2 6.8 5.1 7 5.5.1.3-.2.6 0 .7 0 0 .2.2.3.2.4-.5 4.5-6 5.4-6.2-.8-1.2-1.6-2.4-2.4-3.7-.6.3 0 1 .1 1.5zM63 59.2c-2.1-1.3-5.6 1.3-6.1 1.5-1 .5-1.8-.5-1.3-1.5.5-.8 1.4-1.2 2.3-1.3.3 0 1.3.2 1.5 0 .1-.2.2-.2 0-.3-.9-.6-1.7-1.2-2.6-1.7-.2 1.1-1.4 1.7-2.1 2.4-.8.9-1.5 1.9-1.5 3.2 0 1.1.7 2.1 1.7 2.7 1.1.6 2.3.1 3.3-.5.6-.4 1.3-.9 1.9-1.2 1-.5 2.3-.1 2 1.3-.3 1.1-1.4 2.1-2.4 2.3-.6.2-1.3.1-1.9-.1-.4-.1-1-.7-1.2-.1 1.2.8 2.3 1.7 3.5 2.5.1-.8.5-1.1 1.1-1.6.7-.6 1.4-1.3 2-2.1 1.2-1.7 1.6-4.1-.2-5.5zM63 59.2c1 .6-.6-.5 0 0zM99.7 19.6c-.7.7-8.4-2.3-9-2.8-.3-.1-.3-1.3-.7-.8l-1.2 1.5c-.4.5-.8 1-1.3 1.5-.3.3-.5.5 0 .7.8-.4 5.4 7.3 5 8.5-.7.4-6.9-5.1-7.1-5.4-.1-.1.3-1-.2-.9-.2 0-.7.9-.9 1.1-.3.4-.6.7-.9 1.1.3.5.5 0 1 0 .4.1 1.8 1.3 2.2 1.7-.7 0-2.7.1-2.9.1-.9.1-.4-.7-1-.9-.8.9-1.5 1.8-2.3 2.8-.4.5-.9 1.1-1.3 1.6-.1.1 0 0 0 .1.3.3.1.2.6 0s6.6 4.9 6.8 5.2c.4.4-.2 1 .4 1.2.6-.7 1.2-1.5 1.8-2.2.1-.1.1-.1 0-.2-.4-.4-.5.2-1 .2-.5-.1-4.4-3.4-5.9-4.6 1.8-.1 7.3-.3 8.2-.3.3 0 1.1.9 1.1 1.2-.1.4-.5.6.1.8.5-.6 1-1.1 1.5-1.7l.2-.3c.1-.1.1-.1.2-.3l.2-.2c.4-.5 1.8-2 1.6-2.1-.5-.4-.7.5-1.3-.1-.3-.2-1.2-1.8-1.4-2.2-.3-.4.6-.9 1-1.1.8-.5 3.2-1.2 3.5.3 0 .3-.3.5-.1.7 0 0 .2.2.3.2.2-.2 2.4-2.8 3.3-4-.3-.2-.4-.3-.5-.4zm-7.4 2.2c.1 0 .2-.1 0 0-.3.2-.7.5-1 .8-.5-.9-1-1.8-1.6-2.7 1.2.5 2.4 1 3.5 1.5-.2.1-.5.2-.9.4zM82.6 33c-2.4-2-5.6-1.4-7.6.8-1.9 2.3-1.7 5.7.6 7.6 2.3 1.9 5.7 1.4 7.6-.8 1.9-2.3 1.8-5.7-.6-7.6zm-.3 6.6s0 .1 0 0c-1.3 1.3-3.4.1-4.5-.7-1.1-.8-3.1-2.6-1.9-4.1 1.1-1.3 3.1-.2 4.2.5 1.2.8 3.4 2.6 2.3 4.2l-.1.1z" fill="#fff"/><path d="M82.6 33c1.2 1-.3-.2 0 0zM82.3 39.7c0-.1 0-.1 0 0l.1-.1c-.1 0-.1.1-.1.1zM76 42.1c.1.1.3.3 0 0-2.9-2.2-6.3-1.6-8.5 1.1l-3 3.6c.4.5.8-.1 1.3.2.4.3 6.2 5.1 6.3 5.4.2.5-.3.5.1.9.2.1 4.5-5.2 4.9-6.2.9-1.8.3-3.7-1.1-5zm-1.3 6.8c-.2.3 0 .1-.7.7-.3.3-6.4-4.7-6.2-4.9.8-.9 2.6-1.6 3.6-1.3 2.2.5 5.2 3.2 3.3 5.5z" fill="#fff"/></svg>

<svg width="102" height="84" viewBox="0 0 102 84" fill="none" xmlns="http://www.w3.org/2000/svg">
<path d="M0 0L50.6 59.1L101.7 0H0Z" fill="#23A9E1"/>
<path d="M50.9 0H0V22.5L50.6 84L50.9 83.6L101.6 23.2V0H50.9ZM50.9 57.1L50.6 57.5L3.7 1.8H50.9H98.1L50.9 57.1Z" fill="#491213"/>
<path d="M50.6 57.5L50.9 57.1L78.5 24.8C71.6 25.7 66.6 30.9 59.9 29.8C56.5 29.2 56.4 27.3 55.4 25.3C54.7 23.8 53.5 24 51.9 23.4C50.5 22.8 49.6 21.7 46.7 22.3C44.2 22.9 43.9 26.8 40.7 26.6C39 26.5 38.9 24.1 36.5 21.1C30.2 13.5 24.3 14.6 20.3 21.6L50.6 57.5Z" fill="#491213"/>
<path d="M23.3 32.2C23.8 32.8 24.2 33.5 24.1 34.3C24 34.9 23.2 35.8 23.8 36.1C24.5 35.2 25.3 34.2 26 33.3C25.4 33.1 20.6 27.5 20.6 26.8C19.5 27.4 18.5 28 17.4 28.5C17.6 29.2 18.7 28.5 19.3 28.5C20.1 28.6 20.7 29.1 21.3 29.7C19.6 31.1 15.4 34.7 14.9 34.8C14.7 34.8 13.8 34.2 13.8 34.7C13.8 35 14.7 35.7 14.8 35.9C15.5 36.8 16.3 37.7 17 38.6C17.6 38.3 16.9 37.9 17.2 37.4C17.5 37.1 22.1 33.2 23.3 32.2Z" fill="white"/>
<path d="M18 25.3C18.4 25.2 18.6 25.7 19 25.2C18.2 24.2 17.4 23.3 16.6 22.3C16.2 21.9 15.8 21.4 15.9 22.3C16 22.9 9.8 28 9.4 28.1C8.9 28.3 8.6 27.7 8.3 28.2C9 29.1 9.8 29.9 10.5 30.8C10.7 31.1 11 31.4 11.2 31.7C11.5 32 11.4 31 11.4 31.1C11.3 30.6 11.9 30.2 12.3 29.9C13.8 28.5 17.6 25.3 18 25.3Z" fill="white"/>
<path d="M9.2 24.4C7.4 24.9 5.6 24.2 5 22.4C4.5 20.6 5.6 18.6 7.1 17.6C8.5 16.6 10.7 16.6 11.5 18.4C11.8 19.2 11.7 20.1 11.4 20.9C11.2 21.4 10.8 21.9 11.5 22.2C12.4 21.1 13.2 20 14.1 18.9C13 18.3 12.6 17.2 11.8 16.3C10.9 15.2 9.7 14.2 8.3 14C5.4 13.6 2.7 16.6 2.5 19.2C2.4 20.7 2.9 22 3.7 23.2C4.5 24.2 5.6 24.8 6.1 26C6.4 26.1 8.8 25 9.4 24.7C9.3 24.6 9.3 24.4 9.2 24.4C8.5 24.6 9.2 24.4 9.2 24.4Z" fill="white"/>
<path d="M48.5 60.8C47.3 60 44.5 56.1 43.9 55.5C43.8 55.4 43.7 55.2 43.6 55.1C43.6 55.1 43.3 55.3 43.4 55.3C43.2 55.4 43.5 55.9 43.3 56.2C42.5 57.4 37.5 61.2 37.3 61.4C36.7 61.8 36.1 61.2 35.8 61.7C36.5 62.6 38.6 65.2 38.8 65.3C39.3 65.4 38.9 64.5 39 64.3C39.1 63.9 41.6 61.9 42.5 61.1C42.8 60.8 43.2 61.5 43.4 61.8C43.7 62.3 43.9 62.8 43.7 63.4C43.6 63.8 43 64.3 43.4 64.6C44 63.9 45.8 61.8 46 61.6C46.3 61.3 45.4 61.6 45.5 61.5C45.1 61.7 44.8 61.7 44.4 61.5C44.3 61.4 43.3 60.4 43.4 60.3C43.8 59.9 44.4 59.3 44.9 59.2C45.8 59 46.5 60.7 46.6 61.3C46.7 61.9 46.7 62.5 46.5 63.1C46.4 63.5 46 63.8 46.5 64C47.2 63 47.9 62.1 48.6 61.1C48.8 60.9 48.6 60.8 48.5 60.8C48.4 60.7 48.7 60.8 48.5 60.8Z" fill="white"/>
<path d="M38.3 56.6C40.5 54.7 40.8 51.5 39.1 49.3C37.2 46.8 33.7 46.2 31.3 48.2C29.1 50.1 28.8 53.2 30.5 55.5C32.5 58.2 35.7 58.5 38.3 56.6C39.5 55.7 38.2 56.7 38.3 56.6ZM37.8 51.9C37.2 53.4 35.6 55 34.1 55.6C32.3 56.3 31 54.8 31.7 53C32.3 51.5 33.9 49.9 35.4 49.3C37.3 48.6 38.5 50.2 37.8 51.9C37.5 52.8 37.9 51.7 37.8 51.9Z" fill="white"/>
<path d="M31.9 42C32.4 42.1 32.8 42.6 33.2 42C32.5 41.1 31.7 40.2 31 39.4C30.4 39.7 31 39.9 30.8 40.4C30.6 40.8 28.2 41.2 27.6 41.3C27.8 40.7 28.5 38.7 28.8 38.5C29.3 38.1 29.7 38.9 30.1 38.4C29.2 37.3 28.3 36.2 27.4 35.1C27.1 34.7 26.8 34.1 26.4 34.4C26.4 34.4 26.4 35.9 26.3 36.1C26.2 36.3 25.4 39.7 24.4 40.6C23.9 41 22.2 42.5 21.7 42.7C21.2 42.9 20.9 42.1 20.5 42.7C21.3 43.7 22.2 44.7 23 45.7C23.1 45.8 23.6 46.6 23.8 46.6C24.3 46.7 23.9 45.7 23.9 45.5C24.1 45.1 26.4 42.8 27.4 42.6C28.6 42.3 30.4 41.8 31.9 42C32.2 42.1 31.5 42 31.9 42Z" fill="white"/>
<path d="M69.2 52.4C69.4 53 69.5 53.7 69.4 54.4C69.3 55.3 68.4 57.3 67.2 56.7C66 56.1 65 55 64 54.1C64.8 53.2 65.5 52.4 66.9 52.8C67.3 52.9 67.6 52.8 67.2 52.5C66.8 52.3 64.1 50.5 63.9 50.7C63.6 51 64.4 51.6 64.1 52.2C63.9 52.6 63.5 53 63.2 53.4C62.5 52.8 61.3 52.1 62.1 51.1C62.6 50.4 63.4 49.9 64.2 49.8C64.8 49.7 66 50.2 66.2 49.6C65.1 49.1 64 48.6 62.9 48C63.1 48.8 59.6 52.5 58.8 53.5C58.7 53.6 58.1 54.1 58.1 54.3C58.1 54.7 58.7 54.4 58.8 54.4C59.3 54.2 65.6 59.5 65.8 59.9C65.9 60.2 65.6 60.5 65.8 60.6C65.8 60.6 66 60.8 66.1 60.8C66.5 60.3 70.6 54.8 71.5 54.6C70.7 53.4 69.9 52.2 69.1 50.9C68.5 51.3 69.1 52 69.2 52.4Z" fill="white"/>
<path d="M63 59.2C60.9 57.9 57.4 60.5 56.9 60.7C55.9 61.2 55.1 60.2 55.6 59.2C56.1 58.4 57 58 57.9 57.9C58.2 57.9 59.3 58.1 59.4 57.9C59.5 57.7 59.6 57.7 59.4 57.6C58.5 57 57.7 56.4 56.8 55.9C56.6 57 55.4 57.6 54.7 58.3C53.9 59.2 53.2 60.2 53.2 61.5C53.2 62.6 53.9 63.6 54.9 64.2C56 64.8 57.2 64.3 58.2 63.7C58.8 63.3 59.5 62.8 60.1 62.5C61.1 62 62.4 62.4 62.1 63.8C61.8 64.9 60.7 65.9 59.7 66.1C59.1 66.3 58.4 66.2 57.8 66C57.4 65.9 56.8 65.3 56.6 65.9C57.8 66.7 58.9 67.6 60.1 68.4C60.2 67.6 60.6 67.3 61.2 66.8C61.9 66.2 62.6 65.5 63.2 64.7C64.4 63 64.8 60.6 63 59.2Z" fill="white"/>
<path d="M63 59.2C64 59.7 62.4 58.7 63 59.2V59.2Z" fill="white"/>
<path d="M99.7 19.6C99 20.3 91.3 17.3 90.7 16.8C90.4 16.7 90.4 15.5 90 16C89.6 16.5 89.2 17 88.8 17.5C88.4 18 88 18.5 87.5 19C87.2 19.3 87 19.5 87.5 19.7C88.3 19.3 92.9 27 92.5 28.2C91.8 28.6 85.6 23.1 85.4 22.8C85.3 22.7 85.7 21.8 85.2 21.9C85 21.9 84.5 22.8 84.3 23C84 23.4 83.7 23.7 83.4 24.1C83.7 24.6 83.9 24.1 84.4 24.1C84.8 24.2 86.2 25.4 86.6 25.8C85.9 25.8 83.9 25.9 83.7 25.9C82.8 26 83.3 25.2 82.7 25C81.9 25.9 81.2 26.8 80.4 27.8C80 28.3 79.5 28.9 79.1 29.4C79 29.5 79.1 29.4 79.2 29.5C79.5 29.8 79.3 29.7 79.8 29.5C80.3 29.3 86.4 34.4 86.6 34.7C87 35.2 86.4 35.7 87 35.9C87.6 35.2 88.2 34.4 88.8 33.7C88.9 33.6 88.9 33.6 88.8 33.5C88.4 33.1 88.3 33.7 87.8 33.7C87.3 33.6 83.4 30.3 81.9 29.1C83.7 29 89.2 28.8 90.1 28.8C90.4 28.8 91.2 29.7 91.2 30C91.1 30.4 90.7 30.6 91.3 30.8C91.8 30.2 92.3 29.7 92.8 29.1L93 28.8C93.1 28.7 93.1 28.7 93.2 28.5L93.4 28.3C93.8 27.8 95.2 26.3 95 26.1C94.5 25.7 94.3 26.6 93.7 26C93.4 25.8 92.5 24.2 92.3 23.8C92 23.4 92.9 22.9 93.3 22.7C94.1 22.2 96.5 21.5 96.8 23C96.8 23.3 96.5 23.5 96.7 23.7C96.7 23.7 96.9 23.9 97 23.9C97.2 23.7 99.4 21.1 100.3 19.9C99.9 19.8 99.8 19.7 99.7 19.6ZM92.3 21.8C92.4 21.7 92.5 21.7 92.3 21.8C92 22 91.6 22.3 91.3 22.6C90.8 21.7 90.3 20.8 89.7 19.9C90.9 20.4 92.1 20.9 93.2 21.4C93 21.4 92.7 21.6 92.3 21.8Z" fill="white"/>
<path d="M82.6 33C80.2 31 77 31.6 75 33.8C73.1 36.1 73.3 39.5 75.6 41.4C77.9 43.3 81.3 42.8 83.2 40.6C85.1 38.3 85 34.9 82.6 33ZM82.3 39.6C81 40.9 78.9 39.7 77.8 38.9C76.7 38.1 74.7 36.3 75.9 34.8C77 33.5 79 34.6 80.1 35.3C81.3 36.1 83.5 37.9 82.4 39.5C82.5 39.4 82.5 39.4 82.3 39.6Z" fill="white"/>
<path d="M82.6 33C83.8 34 82.3 32.8 82.6 33V33Z" fill="white"/>
<path d="M82.3 39.6C82.4 39.5 82.4 39.5 82.4 39.5C82.3 39.6 82.3 39.6 82.3 39.6Z" fill="white"/>
<path d="M76 42.1C76.1 42.2 76.3 42.3 76 42.1C73.1 39.9 69.7 40.5 67.5 43.2C66.5 44.4 65.5 45.6 64.5 46.8C64.9 47.3 65.3 46.7 65.8 47C66.2 47.3 72 52.1 72.1 52.4C72.3 52.9 71.8 52.9 72.2 53.3C72.4 53.4 76.7 48.1 77.1 47.1C78 45.3 77.4 43.3 76 42.1ZM74.7 48.9C74.5 49.2 74.7 49 74 49.6C73.7 49.9 67.6 44.9 67.8 44.7C68.6 43.8 70.4 43.1 71.4 43.4C73.6 43.8 76.6 46.5 74.7 48.9Z" fill="white"/>
</svg>
